sprites/streets-v8/_svg/library-11.svg

<?xml version="1.0" encoding="UTF-8" standalone="no"?>
<svg
   xmlns:dc="http://purl.org/dc/elements/1.1/"
   xmlns:cc="http://creativecommons.org/ns#"
   xmlns:rdf="http://www.w3.org/1999/02/22-rdf-syntax-ns#"
   xmlns:svg="http://www.w3.org/2000/svg"
   xmlns="http://www.w3.org/2000/svg"
   id="svg2"
   width="19"
   height="19"
   viewBox="0 0 19 19"
   version="1.1">
  <metadata
     id="metadata14">
    <rdf:RDF>
      <cc:Work
         rdf:about="">
        <dc:format>image/svg+xml</dc:format>
        <dc:type
           rdf:resource="http://purl.org/dc/dcmitype/StillImage" />
      </cc:Work>
    </rdf:RDF>
  </metadata>
  <defs
     id="defs12" />
  <ellipse
     id="ellipse4"
     ry="9.5"
     rx="9.5"
     cy="9.5"
     cx="9.5"
     style="fill:#ffffff;stroke:none;" />
  <ellipse
     id="ellipse6"
     rx="8.5"
     ry="8.5"
     cy="9.5"
     cx="9.5"
     style="fill:#a9a199;stroke:none;" />
  <g
     id="g8"
     transform="translate(4,4)">
      <defs     id="defs4766" />  <metadata     id="metadata4769">    <rdf:RDF>      <cc:Work         rdf:about="">        <dc:format>image/svg+xml</dc:format>        <dc:type           rdf:resource="http://purl.org/dc/dcmitype/StillImage" />        <dc:title />      </cc:Work>    </rdf:RDF>  </metadata>  <path     id="path6122"     d="M 0.3359375 1.6132812 C 0.0009765625 1.6176312 0 2 0 2 L 0 7.5 C 0 7.5 -0.01418 8.000754 0.5 8.140625 L 4.5039062 9.2285156 C 4.5036846 9.2360509 4.5 9.2424091 4.5 9.25 C 4.5 9.6655 4.8345 10 5.25 10 L 5.75 10 C 6.1655 10 6.5 9.6655 6.5 9.25 C 6.5 9.2424091 6.4963155 9.2360509 6.4960938 9.2285156 L 10.5 8.140625 C 11.01418 8.000754 11 7.5 11 7.5 L 11 2 C 11 2 11 1.5003547 10.5 1.6367188 L 5.5 3 L 0.5 1.6367188 C 0.4375 1.6196732 0.38378906 1.6126599 0.3359375 1.6132812 z M 1 2.5 L 5.25 3.6582031 L 5.25 8.4316406 L 1 7.2734375 L 1 2.5 z M 10 2.5 L 10 7.2734375 L 5.75 8.4316406 L 5.75 3.6582031 L 10 2.5 z M 2 3.9550781 L 2 4.4550781 L 4 5 L 4 4.5 L 2 3.9550781 z M 9 3.9550781 L 7 4.5 L 7 5 L 9 4.4550781 L 9 3.9550781 z M 2 5.5 L 2 6 L 4 6.5449219 L 4 6.0449219 L 2 5.5 z M 9 5.5 L 7 6.0449219 L 7 6.5449219 L 9 6 L 9 5.5 z "     style="fill:#ffffff;fill-opacity:1;fill-rule:evenodd;stroke:none;stroke-width:1px;stroke-linecap:butt;stroke-linejoin:miter;stroke-opacity:1" />
  </g>
</svg>

<?xml version="1.0" encoding="utf-8"?>
<!-- Generator: Adobe Illustrator 17.1.0, SVG Export Plug-In . SVG Version: 6.00 Build 0)  -->
<!DOCTYPE svg PUBLIC "-//W3C//DTD SVG 1.1//EN" "http://www.w3.org/Graphics/SVG/1.1/DTD/svg11.dtd">
<svg version="1.1"
	 id="svg2" xmlns:svg="http://www.w3.org/2000/svg" xmlns:cc="http://creativecommons.org/ns#" xmlns:dc="http://purl.org/dc/elements/1.1/" xmlns:rdf="http://www.w3.org/1999/02/22-rdf-syntax-ns#"
	 xmlns="http://www.w3.org/2000/svg" xmlns:xlink="http://www.w3.org/1999/xlink" x="0px" y="0px" width="19px" height="19px"
	 viewBox="0 0 19 19" enable-background="new 0 0 19 19" xml:space="preserve">
<ellipse id="ellipse4" fill="#FFFFFF" cx="9.5" cy="9.5" rx="9.5" ry="9.5"/>
<ellipse id="ellipse6" fill="#A9A199" cx="9.5" cy="9.5" rx="8.5" ry="8.5"/>
<g id="g8" transform="translate(4,4)">
	<path id="path6122" fill="#FFFFFF" d="M0.3,1.6C0,1.6,0,2,0,2v5.5c0,0,0,0.5,0.5,0.6l4,1.1l0,0c0,0.4,0.3,0.8,0.8,0.8h0.5
		c0.4,0,0.8-0.3,0.8-0.8l0,0l4-1.1C11,8,11,7.5,11,7.5V2c0,0,0-0.5-0.5-0.4L5.5,3l-5-1.4C0.4,1.6,0.4,1.6,0.3,1.6z M1,2.5l4.2,1.2
		v4.8L1,7.3V2.5z M10,2.5v4.8L5.8,8.4V3.7L10,2.5z M2,4v0.5L4,5V4.5L2,4z M9,4L7,4.5V5l2-0.5V4z M2,5.5V6l2,0.5V6L2,5.5z M9,5.5L7,6
		v0.5L9,6V5.5z"/>
</g>
</svg>
